X: 2692
T: Banks Of Inverness, The
R: polka
M: 2/4
K: Amajor
|:E>F EC|EF A>B|ce Bc|AF FA|E>F EC|EF A>B|ce Bc|A2 A2:|
ce ec|df fe|ce Bc|AF FA|ce ec|df fg|a>a g/f/e|f2 f>g|
a>a g/f/e|f>e cA|ce Bc|AF FA|E>F EC|EF A>B|ce Bc|A2 A2|
|:ce ce|ce e/e/e/e/|fe ce/e/|fe cB|ce ce|ce e/e/e/e/|fe cB|A2 A2:|
|:Ac ee/e/|fe df|ec Ac|BA FE|Ac ee/e/|fe df|ec AF|FE EF:|

